X:10310
T:Marcha Vi
R:marcha
C:Trad.
M:2/4
L:1/8
Q:1/4=120
K:C
G2 -G/F/E/D/|C3E|D>E FD|E/F/E/D/ C2|G2 -G/F/E/D/|C3E|D>E FD|
[1 C4:|[2 C3E|
|:C>C CE|C>C CE|D>E FD|E/F/E/D/ CE|C>C CE|
C>C CE|D>E FD|[1 C3E:|[2 C4||
